X: 34214
T: Reel Saint-Antoine
R: reel
M: 4/4
K: Gmajor
|:g3f gdBd|g3f gdBd|gfed cBAG|FGAB cdef|
g3f gdBd|gfga gdBd|gfed cBAG|1 FGAF GABd:|2 FGAF G2A2||
|:B3B BGBd|cBAG FGAB|c3c cBce|dcBA GFGA|
B3B BGBd|cBAG FGAB|cdef gedc|1 BGAB G2 GA:|2 BGAB cdef||

